web/wp-content/themes/cncf-twenty-two/images/cncf-icon-corporations.svg

<svg fill="none" height="99" width="120" xmlns="http://www.w3.org/2000/svg"><path d="m59.758 79.192h-6.654v-56.722h53.621v42.814h-6.654v-36.16h-40.313v50.067z" fill="#231f20"/><path d="m16.635 89.02v-72.213l36.595-8.443v5.799h6.654v-14.163l-49.903 11.518v77.501h-9.981v9.981h119.77v-9.98z" fill="#231f20"/><path d="m43.25 24.144h-16.635v6.654h16.635zm0 13.307h-16.635v6.654h16.635z" fill="#5ec3b1"/><path d="m43.25 37.451h-16.635v6.654h16.635zm0 13.308h-16.635v6.654h16.635v-6.653zm0 13.308h-16.635v6.654h16.635z" fill="#5ec3b1"/><path d="m93.155 37.451h-26.616v6.654h26.616zm0 12.975h-26.616v7.32h26.616zm0 13.308h-26.616v7.32h26.616z" fill="#d62293"/></svg>

<svg width="120" height="99" fill="none" xmlns="http://www.w3.org/2000/svg"><path d="M59.758 79.192h-6.654V22.47h53.621v42.814h-6.654v-36.16H59.758v50.067z" fill="#231F20"/><path d="M16.635 89.02V16.807L53.23 8.364v5.799h6.654V0L9.981 11.518v77.501H0V99h119.77v-9.98H16.635z" fill="#231F20"/><path d="M43.25 24.144H26.615v6.654H43.25v-6.654zm0 13.307H26.615v6.654H43.25v-6.654z" fill="#5EC3B1"/><path d="M43.25 37.451H26.615v6.654H43.25v-6.654zm0 13.308H26.615v6.654H43.25V50.76zm0 13.308H26.615v6.654H43.25v-6.654z" fill="#5EC3B1"/><path d="M93.155 37.451H66.539v6.654h26.616v-6.654zm0 12.975H66.539v7.32h26.616v-7.32zm0 13.308H66.539v7.32h26.616v-7.32z" fill="#D62293"/></svg>
